icon/ir/oil-industry.svg

<svg stroke-width="1.5" viewBox="0 0 24 24" fill="none" xmlns="http://www.w3.org/2000/svg" height="1em" width="1em">
  <path d="M18 10C18 9 17 8 15 8C14.6978 8 14.355 8 14.0002 8C12.3434 8 11 6.65685 11 5V2" stroke="currentColor" stroke-linecap="round" stroke-linejoin="round"/>
  <path d="M9 10.8C9 9.03269 6 6 6 6C6 6 3 9.03269 3 10.8C3 12.5673 4.34315 14 6 14C7.65685 14 9 12.5673 9 10.8Z" stroke="currentColor" stroke-width="1.5"/>
  <path d="M18 21H21V12H18V16.5M18 21V16.5M18 21H10.5V16.5L14.5 14L18 16.5" stroke="currentColor" stroke-linecap="round" stroke-linejoin="round"/>
  <path d="M21 10C21 4 17 4 17 4C17 4 21 4.5 21 2" stroke="currentColor" stroke-linecap="round" stroke-linejoin="round"/>
</svg>

<svg width="24" height="24" stroke-width="1.5" fill="none" xmlns="http://www.w3.org/2000/svg"><path d="M18 10c0-1-1-2-3-2h-1a3 3 0 0 1-3-3V2" stroke="currentColor" stroke-linecap="round" stroke-linejoin="round"/><path d="M9 10.8C9 9.033 6 6 6 6s-3 3.033-3 4.8S4.343 14 6 14s3-1.433 3-3.2Z" stroke="currentColor"/><path d="M18 21h3v-9h-3v4.5m0 4.5v-4.5m0 4.5h-7.5v-4.5l4-2.5 3.5 2.5M21 10c0-6-4-6-4-6s4 .5 4-2" stroke="currentColor" stroke-linecap="round" stroke-linejoin="round"/></svg>
